X: 4225
T: Bluebird's Schottische, The
R: barndance
M: 4/4
K: Dmajor
|:D>FA>B A2 f2|D>FA>B A2 f2|(3ggg (3fff (3eee (3ddd|(3ccc (3BBB (3ABA (3GFE|
D>FA>B A2 f2|D>FA>B A2 a2|(3ggg (3fff (3eee (3ddd|c>AB>c d2 z2:|
e4 a3 d|c>Bc>d e2 (3edc|B2 e2 c2 e2|B2 e2 c2 e2|
e4 a3 d|c>Bc>d e2 e2|e>a^g>f e>dc>B|A2 G2 F2 E2||

